X: 3
T: Ma'oz Tzur (classic Ashkenaz)
Z: Gideon Klionsky
R:
K:C
C: Mordechai (Ben Yitzhak Halevi?) (words), Middle AgesGerman melody
Q: 1/4=60
L: 1/4
M: 4/4
|:"C"C "G"G, "Am"C "F"F | "C/G"E "G7"D "C"C>G | "Am" GA "Dm"DE/F/ | "C"(E "G7"D) "C"C2:|
"C"G>G "F"A "G7"B | "C"c2 "G"G2 | "Am"c "Em" B "F"A "C"G | "G7"G/F/E/F/ D2 |
"C"E>F G>E | "G7"D>E "Dm" F2 | "C"EC"F"AG/F/ | "C"EF "G7"G2 |
"C"E>F G>E | "G7"D>E "G#dim"F2 | "Am"E "Em"C "F"AG/F/ | "C"E "G7"D "C"C2 |]
%
W:מָעוֹז צוּר יְשׁוּעָתִי, לְךָ נָאֶה לְשַׁבֵּחַ
W:תִּכּוֹן בֵּית תְּפִלָּתִי, וְשָׁם תּוֹדָה נְזַבֵּחַ
W:לְעֵת תָּכִין מַטְבֵּחַ מִצָּר הַמְנַבֵּחַ
W:אָז אֶגְמוֹר בְּשִׁיר מִזְמוֹר חֲנֻכַּת הַמִּזְבֵּחַ
W:
W:רָעוֹת שָׂבְעָה נַפְשִׁי, בְּיָגוֹן כֹּחִי כָּלָה
W:חַיַּי מֵרְרוּ בְקֹשִׁי, בְּשִׁעְבּוּד מַלְכוּת עֶגְלָה
W:וּבְיָדוֹ הַגְּדוֹלָה הוֹצִיא אֶת הַסְּגֻלָּה
W:חֵיל פַּרְעֹה וְכָל זַרְעוֹ יָרְדוּ כְּאֶבֶן בִּמְצוּלָה
W:
W:דְּבִיר קָדְשׁוֹ הֱבִיאַנִי, וְגַם שָׁם לֹא שָׁקַטְתִּי
W:וּבָא נוֹגֵשׂ וְהִגְלַנִי, כִּי זָרִים עָבַדְתִּי
W:וְיֵין רַעַל מָסַכְתִּי, כִּמְעַט שֶׁעָבַרְתִּי
W:קֵץ בָּבֶל זְרֻבָּבֶל, לְקֵץ שִׁבְעִים נוֹשַׁעְתִּ
W:
W:כְּרוֹת קוֹמַת בְּרוֹשׁ, בִּקֵּשׁ אֲגָגִי בֶּן הַמְּדָתָא
W:וְנִהְיָתָה לוֹ לְפַח וּלְמוֹקֵשׁ, וְגַאֲוָתוֹ נִשְׁבָּתָה
W:רֹאשׁ יְמִינִי נִשֵּׂאתָ, וְאוֹיֵב שְׁמוֹ מָחִיתָ
W:רֹב בָּנָיו וְקִנְיָנָיו עַל הָעֵץ תָּלִיתָ
W:
W:יְוָנִים נִקְבְּצוּ עָלַי, אֲזַי בִּימֵי חַשְׁמַנִּים
W:וּפָרְצוּ חוֹמוֹת מִגְדָּלַי, וְטִמְּאוּ כָּל הַשְּׁמָנִים
W:וּמִנּוֹתַר קַנְקַנִּים נַעֲשָׂה נֵס לַשּׁוֹשַׁנִּים
W:בְּנֵי בִינָה יְמֵי שְׁמוֹנָה קָבְעוּ שִׁיר וּרְנָנִים
W:
W:חֲשׂוֹף זְרוֹעַ קָדְשֶׁךָ וְקָרֵב קֵץ הַיְשׁוּעָה
W:נְקֹם נִקְמַת עֲבָדֶיךָ מֵאֻמָּה הָרְשָׁעָה
W:כִּי אָרְכָה הַשָּׁעָה וְאֵין קֵץ לִימֵי הָרָעָה
W:דְּחֵה אַדְמוֹן בְּצֵל צַלְמוֹן הָקֵם לָנוּ רוֹעִים שִׁבְעָה
W:
W:
W:Ma'oz tzur yeshu'ati, lecha na'eh leshabe'ach
W:Tikon beit tefilati, vesham toda nezabe'ach
W:Le'et takhin matbe'ach mitzar hamnabe'ach
W:Az egmor b’shir mizmor chanukat hamizbe'ach
W:
W:Ra'ot shav'a nafshi, b'yagon kochi kala
W:Chayai mar'ru v'koshi, b'shi'bud malchut egla
W:Uvyado hag'dola hotzi et hasegula
W:Cheil Paro v'chol zar'o, yardu k'even bimtzula
W:
W:D'vir kodsho hevi'ani, v'gam sham lo shakat'ti
W:Uva noges v'higlani, ki zarim avad'ti
W:V'yein ra'al masachti, kim'at she'avarti
W:Keitz Bavel Zerubavel, l'keitz shiv'im nosha'ti
W:
W:K'rot komat b'rosh bikesh Agagi ben Hammedata
W:V'nihy'ta lo l'fach ul'mokesh, v'ga'avato nishbata
W:Rosh y'mini niseita, v'oyev sh'mo machita
W:Rov banav v'kinyanav al ha'etz talita
W:
W:Y'vanim nikb'tzu alai, azai bimei Chashmanim
W:Ufartzu chomot migdalai, v'tim'u kol hash'manim
W:Uminotar kankanim, na'asa nes lashoshanim
W:B'nei vina y'mei shmona kav'u shir urenanim
W:
W:Chasof z'roa kodsh'cha v'karev keitz hayeshu'ach
W:N'kom nikmat avadecha me'uma har'sha'a
W:Ki ar'cha hasha'a v'ein keitz limei hayeshu'ach
W:D'chei admon b'tzel tzalmon, hakem lanu ro'im shiv'a

